X: 25066
T: Maids Of Castlebar, The
R: reel
M: 4/4
K: Dmajor
|dD (3DDD EDB,E|D2FA BAFA|(3ded (3cdc (3BcB AF|DEFD E~B,3|
dD (3DDD EDB,E|D2FA BAFA|d~f2 e~B3|FAEA FDD2|
"1"dD (3DDD EDB,E|D2FA BAFA|(3ded (3cdc (3BcB AF|(3GAG (3FGF (3EFE DB,|
~A,3B, DEFA|BFAF EFAB|d2dc dAFA|FAEA FDD2|
|:(3f^ga (3f^ga fd (3ddd|fdad f(3ddd|(3gfe be gfef|(3gfe be gfeg|
fagf egfe|dfed BAFA|"2"dfec dBAF|FAEA FDD2:|
"Variations""1" fedc dAFA|BFAF EFDB,|~A,3B, DEFA|BFAF EFAB|"2" d2dc dBAF|FAEA FABc|

